X:46
T:Mo Maire
R:Bourre
M:3/8
L:1/8
N:La Bourre 4th edition 1929, page 54
Z:Steve Mansfield www.lesession.co.uk May 2012
K:Flyd
F | G c2 | B/ c/ d c | _B/ A/ G A |
_B c2 | G _B A | G2 _B | A F2 | G/ A/ G E |
F/ G/ A _B | A F2 | G/ A/ G E | F3 |]

